assets/img/components/select.svg

<svg width="272" height="143" viewBox="0 0 272 143" fill="none" xmlns="http://www.w3.org/2000/svg">
<rect width="272" height="143" rx="8" fill="#EFF6FB"/>
<rect x="22" y="94" width="228" height="24" rx="4" fill="white" stroke="#BEC0C1" stroke-width="2"/>
<rect x="22" y="36" width="228" height="24" rx="4" fill="white" stroke="#BEC0C1" stroke-width="2"/>
<path d="M23 26C23 24.3431 24.3431 23 26 23H111.71C113.367 23 114.71 24.3431 114.71 26C114.71 27.6569 113.367 29 111.71 29H26C24.3431 29 23 27.6569 23 26Z" fill="#457AA5"/>
<path d="M23 84C23 82.3431 24.3431 81 26 81H92C93.6569 81 95 82.3431 95 84C95 85.6569 93.6569 87 92 87H26C24.3431 87 23 85.6569 23 84Z" fill="#BEC0C1"/>
<path d="M233.5 49.8678L238.047 45.3207C238.261 45.107 238.533 45.0001 238.863 45.0001C239.194 45.0001 239.466 45.107 239.679 45.3207C239.893 45.5345 240 45.8065 240 46.1369C240 46.4672 239.893 46.7393 239.679 46.953L234.316 52.3162C234.083 52.5494 233.811 52.666 233.5 52.666C233.189 52.666 232.917 52.5494 232.684 52.3162L227.321 46.953C227.107 46.7393 227 46.4672 227 46.1369C227 45.8065 227.107 45.5345 227.321 45.3207C227.534 45.107 227.806 45.0001 228.137 45.0001C228.467 45.0001 228.739 45.107 228.953 45.3207L233.5 49.8678Z" fill="#BEC0C1"/>
<path d="M233.5 107.868L238.047 103.321C238.261 103.107 238.533 103 238.863 103C239.194 103 239.466 103.107 239.679 103.321C239.893 103.534 240 103.807 240 104.137C240 104.467 239.893 104.739 239.679 104.953L234.316 110.316C234.083 110.549 233.811 110.666 233.5 110.666C233.189 110.666 232.917 110.549 232.684 110.316L227.321 104.953C227.107 104.739 227 104.467 227 104.137C227 103.807 227.107 103.534 227.321 103.321C227.534 103.107 227.806 103 228.137 103C228.467 103 228.739 103.107 228.953 103.321L233.5 107.868Z" fill="#BEC0C1"/>
</svg>

<svg xmlns="http://www.w3.org/2000/svg" width="272" height="143" fill="none" viewBox="0 0 272 143"><rect width="272" height="143" fill="#eff6fb" rx="8"/><rect width="228" height="24" x="22" y="94" fill="#fff" stroke="#bec0c1" stroke-width="2" rx="4"/><rect width="228" height="24" x="22" y="36" fill="#fff" stroke="#bec0c1" stroke-width="2" rx="4"/><path fill="#457aa5" d="M23 26a3 3 0 0 1 3-3h85.71a3 3 0 1 1 0 6H26a3 3 0 0 1-3-3"/><path fill="#bec0c1" d="M23 84a3 3 0 0 1 3-3h66a3 3 0 1 1 0 6H26a3 3 0 0 1-3-3M233.5 49.868l4.547-4.547q.321-.32.816-.32.497 0 .816.32.321.321.321.816t-.321.816l-5.363 5.363q-.35.35-.816.35t-.816-.35l-5.363-5.363a1.1 1.1 0 0 1-.321-.816q0-.495.321-.816.32-.32.816-.32t.816.32zM233.5 107.868l4.547-4.547q.321-.321.816-.321.497 0 .816.321.321.32.321.816t-.321.816l-5.363 5.363q-.35.35-.816.35t-.816-.35l-5.363-5.363a1.1 1.1 0 0 1-.321-.816q0-.496.321-.816.32-.321.816-.321t.816.321z"/></svg>
